findly-builder/apps/searchassist/src/assets/icons/inProgressBlue.svg

<svg width="30" height="30" viewBox="0 0 30 30" fill="none" xmlns="http://www.w3.org/2000/svg">
<circle cx="15" cy="15" r="15" fill="#1372FF"/>
<path fill-rule="evenodd" clip-rule="evenodd" d="M14.4615 11.2308V8H15.5385V11.2308H14.4615ZM9.67007 10.4315L10.4315 9.67007L12.3329 11.5673L11.5673 12.3329L9.67007 10.4315ZM19.5685 9.67007L17.2632 11.9712L18.0288 12.7368L20.3299 10.4315L19.5685 9.67007ZM8 15.5385V14.4615H10.1538V15.5385H8ZM18.7692 14.4615V15.5385H22V14.4615H18.7692ZM9.67007 19.5685L10.7596 18.479L11.5252 19.2404L10.4315 20.3299L9.67007 19.5685ZM19.5685 18.8071L18.8071 19.5685L19.5685 20.3299L20.3299 19.5685L19.5685 18.8071ZM14.4615 22V20.9231H15.5385V22H14.4615Z" fill="white"/>
</svg>

<svg width="30" height="30" fill="none" xmlns="http://www.w3.org/2000/svg"><circle cx="15" cy="15" r="15" fill="#1372FF"/><path fill-rule="evenodd" clip-rule="evenodd" d="M14.461 11.23V8h1.078v3.23H14.46Zm-4.79-.799.76-.76 1.902 1.896-.766.766L9.67 10.43Zm9.898-.76-2.306 2.3.766.766 2.3-2.306-.76-.76ZM8 15.538V14.46h2.154v1.078H8Zm10.77-1.078v1.078H22V14.46h-3.23Zm-9.1 5.107 1.09-1.089.765.761-1.094 1.09-.76-.761Zm9.899-.76-.762.76.762.762.76-.761-.76-.762ZM14.462 22v-1.077h1.077V22H14.46Z" fill="#fff"/></svg>
